Numix/16/status/indicator-keyboard-Be-8.svg

<?xml version="1.0" encoding="UTF-8" standalone="no"?>
<svg
   xmlns:dc="http://purl.org/dc/elements/1.1/"
   xmlns:cc="http://creativecommons.org/ns#"
   xmlns:rdf="http://www.w3.org/1999/02/22-rdf-syntax-ns#"
   xmlns:svg="http://www.w3.org/2000/svg"
   xmlns="http://www.w3.org/2000/svg"
   xmlns:sodipodi="http://sodipodi.sourceforge.net/DTD/sodipodi-0.dtd"
   xmlns:inkscape="http://www.inkscape.org/namespaces/inkscape"
   viewBox="0 0 16 16"
   id="svg2"
   version="1.1"
   inkscape:version="0.91 r13725"
   sodipodi:docname="indicator-keyboard-Be-8.svg">
  <metadata
     id="metadata14">
    <rdf:RDF>
      <cc:Work
         rdf:about="">
        <dc:format>image/svg+xml</dc:format>
        <dc:type
           rdf:resource="http://purl.org/dc/dcmitype/StillImage" />
      </cc:Work>
    </rdf:RDF>
  </metadata>
  <defs
     id="defs12" />
  <sodipodi:namedview
     pagecolor="#ffffff"
     bordercolor="#666666"
     borderopacity="1"
     objecttolerance="10"
     gridtolerance="10"
     guidetolerance="10"
     inkscape:pageopacity="0"
     inkscape:pageshadow="2"
     inkscape:window-width="459"
     inkscape:window-height="369"
     id="namedview10"
     showgrid="false"
     inkscape:zoom="14.75"
     inkscape:cx="8"
     inkscape:cy="8"
     inkscape:window-x="65"
     inkscape:window-y="24"
     inkscape:window-maximized="0"
     inkscape:current-layer="svg2" />
  <path
     style="fill:#ececec;fill-opacity:1"
     d="M 1.5996094 0 C 0.71320937 2.9605947e-16 0 0.71320937 0 1.5996094 L 0 14.400391 C 2.9605947e-16 15.286791 0.71320937 16 1.5996094 16 L 14.400391 16 C 15.286791 16 16 15.286791 16 14.400391 L 16 1.5996094 C 16 0.71320937 15.286791 0 14.400391 0 L 1.5996094 0 z M 3.1972656 4.8046875 C 3.5332656 4.8046875 3.8503906 4.8327187 4.1503906 4.8867188 C 4.4563906 4.9407187 4.7231719 5.03025 4.9511719 5.15625 C 5.1791719 5.28225 5.3601875 5.4501562 5.4921875 5.6601562 C 5.6301875 5.8641563 5.6992188 6.1197812 5.6992188 6.4257812 C 5.6992188 6.7617812 5.6115 7.0490625 5.4375 7.2890625 C 5.2695 7.5230625 5.0419063 7.6853906 4.7539062 7.7753906 C 4.9339062 7.8173906 5.0980469 7.8770781 5.2480469 7.9550781 C 5.3980469 8.0330781 5.5305312 8.1357187 5.6445312 8.2617188 C 5.7585313 8.3817188 5.84625 8.5309375 5.90625 8.7109375 C 5.97225 8.8849375 6.0039062 9.0957969 6.0039062 9.3417969 C 6.0039062 9.9297971 5.7707344 10.379406 5.3027344 10.691406 C 4.8347344 10.997406 4.1108125 11.150391 3.1328125 11.150391 C 3.0308125 11.150391 2.9114375 11.144813 2.7734375 11.132812 C 2.6414375 11.126813 2.503375 11.113703 2.359375 11.095703 C 2.221375 11.083703 2.0888906 11.068781 1.9628906 11.050781 C 1.8368906 11.026781 1.730625 11.002516 1.640625 10.978516 L 1.640625 4.9765625 C 1.748625 4.9465625 1.868 4.9222969 2 4.9042969 C 2.132 4.8802969 2.2662969 4.8616094 2.4042969 4.8496094 C 2.5482969 4.8316094 2.6863594 4.8204531 2.8183594 4.8144531 C 2.9563594 4.8084531 3.0832656 4.8046875 3.1972656 4.8046875 z M 3.1972656 5.3261719 C 2.9752656 5.3261719 2.7849063 5.3337031 2.6289062 5.3457031 C 2.4789063 5.3577031 2.3539531 5.372625 2.2519531 5.390625 L 2.2519531 7.5859375 L 3.4394531 7.5859375 C 3.6614531 7.5859375 3.8723125 7.5710156 4.0703125 7.5410156 C 4.2683125 7.5050156 4.4380312 7.4453281 4.5820312 7.3613281 C 4.7320312 7.2713281 4.8495938 7.1537656 4.9335938 7.0097656 C 5.0175937 6.8597656 5.0605469 6.6713594 5.0605469 6.4433594 C 5.0605469 6.2393594 5.0138281 6.0676875 4.9238281 5.9296875 C 4.8338281 5.7856875 4.7051094 5.668125 4.5371094 5.578125 C 4.3751094 5.488125 4.181125 5.426625 3.953125 5.390625 C 3.725125 5.348625 3.4732656 5.3261719 3.1972656 5.3261719 z M 9.0371094 6.3359375 C 9.6071094 6.3359375 10.058531 6.5205781 10.394531 6.8925781 C 10.736531 7.2645781 10.908203 7.8373281 10.908203 8.6113281 C 10.908203 8.6593281 10.906391 8.7078594 10.900391 8.7558594 C 10.900391 8.8038594 10.896625 8.848625 10.890625 8.890625 L 7.6230469 8.890625 C 7.6410469 9.460625 7.782875 9.8990779 8.046875 10.205078 C 8.310875 10.511078 8.7306406 10.664062 9.3066406 10.664062 C 9.6246406 10.664062 9.8764998 10.634219 10.0625 10.574219 C 10.2485 10.514219 10.382797 10.463875 10.466797 10.421875 L 10.576172 10.925781 C 10.492172 10.973781 10.331656 11.029703 10.097656 11.095703 C 9.8696561 11.161703 9.6010625 11.195312 9.2890625 11.195312 C 8.8810625 11.195312 8.5321406 11.135625 8.2441406 11.015625 C 7.9561406 10.895625 7.7192031 10.727719 7.5332031 10.511719 C 7.3472031 10.295719 7.2129063 10.040094 7.1289062 9.7460938 C 7.0449063 9.4460938 7.0019531 9.119625 7.0019531 8.765625 C 7.0019531 8.357625 7.0598281 8.003125 7.1738281 7.703125 C 7.2938281 7.397125 7.4468125 7.1415 7.6328125 6.9375 C 7.8248125 6.7335 8.04125 6.5842813 8.28125 6.4882812 C 8.52725 6.3862812 8.7791094 6.3359375 9.0371094 6.3359375 z M 9.0449219 6.8574219 C 8.8349219 6.8574219 8.6465156 6.8984219 8.4785156 6.9824219 C 8.3165156 7.0664219 8.172875 7.1802188 8.046875 7.3242188 C 7.926875 7.4622188 7.8298125 7.6245469 7.7578125 7.8105469 C 7.6918125 7.9965469 7.652625 8.1924844 7.640625 8.3964844 L 10.304688 8.3964844 C 10.292687 7.9104844 10.178891 7.5317187 9.9628906 7.2617188 C 9.7468906 6.9917187 9.4409219 6.8574219 9.0449219 6.8574219 z M 2.2519531 8.1074219 L 2.2519531 10.564453 C 2.3419531 10.576453 2.47625 10.591375 2.65625 10.609375 C 2.83625 10.621375 3.0190781 10.628906 3.2050781 10.628906 C 3.4810781 10.628906 3.7478594 10.610219 4.0058594 10.574219 C 4.2698594 10.538219 4.5012187 10.472953 4.6992188 10.376953 C 4.8972187 10.280953 5.0557813 10.148469 5.1757812 9.9804688 C 5.2957813 9.8124687 5.3574219 9.5960312 5.3574219 9.3320312 C 5.3574219 9.0920313 5.3144687 8.8942813 5.2304688 8.7382812 C 5.1464688 8.5762813 5.0270937 8.449375 4.8710938 8.359375 C 4.7150938 8.263375 4.5229219 8.1981094 4.2949219 8.1621094 C 4.0729219 8.1261094 3.822875 8.1074219 3.546875 8.1074219 L 2.2519531 8.1074219 z M 13.095703 8.7539062 C 13.298503 8.7539062 13.474847 8.7852563 13.623047 8.8476562 C 13.771247 8.9061562 13.892728 8.9845313 13.986328 9.0820312 C 14.083828 9.1795312 14.154366 9.2912156 14.197266 9.4160156 C 14.244066 9.5408156 14.267578 9.6681812 14.267578 9.8007812 C 14.267578 9.9294812 14.247984 10.049003 14.208984 10.158203 C 14.169984 10.263503 14.119041 10.361472 14.056641 10.451172 C 13.994241 10.536972 13.923703 10.613388 13.845703 10.679688 C 13.767703 10.745988 13.691287 10.800856 13.617188 10.847656 C 13.890188 10.964656 14.082206 11.111609 14.191406 11.287109 C 14.304506 11.462609 14.359375 11.64875 14.359375 11.84375 C 14.359375 12.01145 14.329978 12.164288 14.267578 12.304688 C 14.209078 12.445088 14.124825 12.566569 14.015625 12.667969 C 13.906425 12.765469 13.773188 12.841884 13.617188 12.896484 C 13.461187 12.954984 13.286803 12.984375 13.095703 12.984375 C 12.904603 12.984375 12.732172 12.956944 12.576172 12.902344 C 12.424072 12.847744 12.290834 12.771328 12.177734 12.673828 C 12.068534 12.572428 11.982322 12.454866 11.919922 12.322266 C 11.861422 12.185766 11.833984 12.038806 11.833984 11.878906 C 11.833984 11.742406 11.851625 11.618966 11.890625 11.509766 C 11.929625 11.396666 11.980569 11.296737 12.042969 11.210938 C 12.109269 11.121237 12.183725 11.042863 12.265625 10.976562 C 12.351425 10.906363 12.441556 10.845622 12.535156 10.794922 C 12.297256 10.677922 12.134628 10.540759 12.048828 10.380859 C 11.963028 10.220959 11.919922 10.046575 11.919922 9.859375 C 11.919922 9.691675 11.949312 9.5407968 12.007812 9.4042969 C 12.066312 9.2677969 12.146647 9.1521937 12.248047 9.0585938 C 12.353347 8.9610938 12.478747 8.8866375 12.623047 8.8359375 C 12.767347 8.7813375 12.924103 8.7539062 13.095703 8.7539062 z M 13.095703 9.0820312 C 12.967003 9.0820312 12.855313 9.101625 12.757812 9.140625 C 12.660312 9.179625 12.578019 9.2344875 12.511719 9.3046875 C 12.449319 9.3709875 12.400334 9.4493625 12.365234 9.5390625 C 12.334034 9.6287624 12.318359 9.7208594 12.318359 9.8183594 C 12.318359 9.9275594 12.330116 10.027487 12.353516 10.117188 C 12.380816 10.206888 12.4298 10.289181 12.5 10.363281 C 12.5702 10.433481 12.668169 10.5001 12.792969 10.5625 C 12.917769 10.621 13.080403 10.677822 13.283203 10.732422 C 13.462603 10.631022 13.605637 10.505622 13.710938 10.357422 C 13.816237 10.209222 13.869141 10.023081 13.869141 9.8007812 C 13.869141 9.7110812 13.853466 9.6248624 13.822266 9.5390625 C 13.794966 9.4532625 13.7499 9.3768469 13.6875 9.3105469 C 13.629 9.2403469 13.550625 9.1854844 13.453125 9.1464844 C 13.355625 9.1035844 13.236103 9.0820312 13.095703 9.0820312 z M 12.863281 10.929688 C 12.664381 11.023287 12.509591 11.150647 12.400391 11.310547 C 12.291191 11.466547 12.236328 11.656606 12.236328 11.878906 C 12.236328 11.988106 12.253963 12.088041 12.289062 12.181641 C 12.324162 12.275241 12.377066 12.357534 12.447266 12.427734 C 12.521366 12.497934 12.611497 12.554756 12.716797 12.597656 C 12.825997 12.636656 12.951403 12.65625 13.095703 12.65625 C 13.240003 12.65625 13.365403 12.636656 13.470703 12.597656 C 13.579903 12.554756 13.670034 12.497934 13.740234 12.427734 C 13.814334 12.357534 13.869197 12.275241 13.904297 12.181641 C 13.939397 12.088041 13.957031 11.988106 13.957031 11.878906 C 13.957031 11.711206 13.923722 11.57405 13.857422 11.46875 C 13.795022 11.36345 13.710769 11.277238 13.605469 11.210938 C 13.504069 11.144638 13.386506 11.091734 13.253906 11.052734 C 13.125206 11.013734 12.995881 10.972587 12.863281 10.929688 z "
     id="path4" />
</svg>

<svg xmlns="http://www.w3.org/2000/svg" viewBox="0 0 16 16">
 <path d="m 1.6 0 c -0.886 0 -1.6 0.713 -1.6 1.6 l 0 12.801 c 0 0.886 0.713 1.6 1.6 1.6 l 12.801 0 c 0.886 0 1.6 -0.713 1.6 -1.6 l 0 -12.801 c 0 -0.886 -0.713 -1.6 -1.6 -1.6 l -12.801 0 z m 1.598 4.805 c 0.336 0 0.653 0.028 0.953 0.082 c 0.306 0.054 0.573 0.144 0.801 0.27 c 0.228 0.126 0.409 0.294 0.541 0.504 c 0.138 0.204 0.207 0.46 0.207 0.766 c 0 0.336 -0.088 0.623 -0.262 0.863 c -0.168 0.234 -0.396 0.396 -0.684 0.486 c 0.18 0.042 0.344 0.102 0.494 0.18 c 0.15 0.078 0.282 0.181 0.396 0.307 c 0.114 0.12 0.202 0.269 0.262 0.449 c 0.066 0.174 0.098 0.385 0.098 0.631 c 0 0.588 -0.233 1.038 -0.701 1.35 c -0.468 0.306 -1.192 0.459 -2.17 0.459 c -0.102 0 -0.221 -0.006 -0.359 -0.018 c -0.132 -0.006 -0.27 -0.019 -0.414 -0.037 c -0.138 -0.012 -0.27 -0.027 -0.396 -0.045 c -0.126 -0.024 -0.232 -0.048 -0.322 -0.072 l 0 -6 c 0.108 -0.03 0.227 -0.054 0.359 -0.072 c 0.132 -0.024 0.266 -0.043 0.404 -0.055 c 0.144 -0.018 0.282 -0.029 0.414 -0.035 c 0.138 -0.006 0.265 -0.01 0.379 -0.01 z m 0 0.521 c -0.222 0 -0.412 0.008 -0.568 0.02 c -0.15 0.012 -0.275 0.027 -0.377 0.045 l 0 2.195 l 1.188 0 c 0.222 0 0.433 -0.015 0.631 -0.045 c 0.198 -0.036 0.368 -0.096 0.512 -0.18 c 0.15 -0.09 0.268 -0.208 0.352 -0.352 c 0.084 -0.15 0.127 -0.338 0.127 -0.566 c 0 -0.204 -0.047 -0.376 -0.137 -0.514 c -0.09 -0.144 -0.219 -0.262 -0.387 -0.352 c -0.162 -0.09 -0.356 -0.152 -0.584 -0.188 c -0.228 -0.042 -0.48 -0.064 -0.756 -0.064 z m 5.84 1.01 c 0.57 0 1.021 0.185 1.357 0.557 c 0.342 0.372 0.514 0.945 0.514 1.719 c 0 0.048 -0.002 0.097 -0.008 0.145 c 0 0.048 -0.004 0.093 -0.01 0.135 l -3.268 0 c 0.018 0.57 0.16 1.01 0.424 1.314 c 0.264 0.306 0.684 0.459 1.26 0.459 c 0.318 0 0.57 -0.03 0.756 -0.09 c 0.186 -0.06 0.32 -0.11 0.404 -0.152 l 0.109 0.504 c -0.084 0.048 -0.245 0.104 -0.479 0.17 c -0.228 0.066 -0.497 0.1 -0.809 0.1 c -0.408 0 -0.757 -0.06 -1.045 -0.18 c -0.288 -0.12 -0.525 -0.288 -0.711 -0.504 c -0.186 -0.216 -0.32 -0.472 -0.404 -0.766 c -0.084 -0.3 -0.127 -0.626 -0.127 -0.98 c 0 -0.408 0.058 -0.762 0.172 -1.063 c 0.12 -0.306 0.273 -0.562 0.459 -0.766 c 0.192 -0.204 0.408 -0.353 0.648 -0.449 c 0.246 -0.102 0.498 -0.152 0.756 -0.152 z m 0.008 0.521 c -0.21 0 -0.398 0.041 -0.566 0.125 c -0.162 0.084 -0.306 0.198 -0.432 0.342 c -0.12 0.138 -0.217 0.3 -0.289 0.486 c -0.066 0.186 -0.105 0.382 -0.117 0.586 l 2.664 0 c -0.012 -0.486 -0.126 -0.865 -0.342 -1.135 c -0.216 -0.27 -0.522 -0.404 -0.918 -0.404 z m -6.793 1.25 l 0 2.457 c 0.09 0.012 0.224 0.027 0.404 0.045 c 0.18 0.012 0.363 0.02 0.549 0.02 c 0.276 0 0.543 -0.019 0.801 -0.055 c 0.264 -0.036 0.495 -0.101 0.693 -0.197 c 0.198 -0.096 0.357 -0.228 0.477 -0.396 c 0.12 -0.168 0.182 -0.384 0.182 -0.648 c 0 -0.24 -0.043 -0.438 -0.127 -0.594 c -0.084 -0.162 -0.203 -0.289 -0.359 -0.379 c -0.156 -0.096 -0.348 -0.161 -0.576 -0.197 c -0.222 -0.036 -0.472 -0.055 -0.748 -0.055 l -1.295 0 z m 10.844 0.646 c 0.203 0 0.379 0.031 0.527 0.094 c 0.148 0.059 0.27 0.137 0.363 0.234 c 0.098 0.098 0.168 0.209 0.211 0.334 c 0.047 0.125 0.07 0.252 0.07 0.385 c 0 0.129 -0.02 0.248 -0.059 0.357 c -0.039 0.105 -0.09 0.203 -0.152 0.293 c -0.062 0.086 -0.133 0.162 -0.211 0.229 c -0.078 0.066 -0.154 0.121 -0.229 0.168 c 0.273 0.117 0.465 0.264 0.574 0.439 c 0.113 0.176 0.168 0.362 0.168 0.557 c 0 0.168 -0.029 0.321 -0.092 0.461 c -0.059 0.14 -0.143 0.262 -0.252 0.363 c -0.109 0.098 -0.242 0.174 -0.398 0.229 c -0.156 0.059 -0.33 0.088 -0.521 0.088 c -0.191 0 -0.364 -0.027 -0.52 -0.082 c -0.152 -0.055 -0.285 -0.131 -0.398 -0.229 c -0.109 -0.101 -0.195 -0.219 -0.258 -0.352 c -0.059 -0.137 -0.086 -0.283 -0.086 -0.443 c 0 -0.136 0.018 -0.26 0.057 -0.369 c 0.039 -0.113 0.09 -0.213 0.152 -0.299 c 0.066 -0.09 0.141 -0.168 0.223 -0.234 c 0.086 -0.07 0.176 -0.131 0.27 -0.182 c -0.238 -0.117 -0.401 -0.254 -0.486 -0.414 c -0.086 -0.16 -0.129 -0.334 -0.129 -0.521 c 0 -0.168 0.029 -0.319 0.088 -0.455 c 0.059 -0.136 0.139 -0.252 0.24 -0.346 c 0.105 -0.098 0.231 -0.172 0.375 -0.223 c 0.144 -0.055 0.301 -0.082 0.473 -0.082 z m 0 0.328 c -0.129 0 -0.24 0.02 -0.338 0.059 c -0.098 0.039 -0.18 0.094 -0.246 0.164 c -0.062 0.066 -0.111 0.145 -0.146 0.234 c -0.031 0.09 -0.047 0.182 -0.047 0.279 c 0 0.109 0.012 0.209 0.035 0.299 c 0.027 0.09 0.076 0.172 0.146 0.246 c 0.07 0.07 0.168 0.137 0.293 0.199 c 0.125 0.059 0.287 0.115 0.49 0.17 c 0.179 -0.101 0.322 -0.227 0.428 -0.375 c 0.105 -0.148 0.158 -0.334 0.158 -0.557 c 0 -0.09 -0.016 -0.176 -0.047 -0.262 c -0.027 -0.086 -0.072 -0.162 -0.135 -0.229 c -0.059 -0.07 -0.137 -0.125 -0.234 -0.164 c -0.098 -0.043 -0.217 -0.064 -0.357 -0.064 z m -0.232 1.848 c -0.199 0.094 -0.354 0.221 -0.463 0.381 c -0.109 0.156 -0.164 0.346 -0.164 0.568 c 0 0.109 0.018 0.209 0.053 0.303 c 0.035 0.094 0.088 0.176 0.158 0.246 c 0.074 0.07 0.164 0.127 0.27 0.17 c 0.109 0.039 0.235 0.059 0.379 0.059 c 0.144 0 0.27 -0.02 0.375 -0.059 c 0.109 -0.043 0.199 -0.1 0.27 -0.17 c 0.074 -0.07 0.129 -0.152 0.164 -0.246 c 0.035 -0.094 0.053 -0.194 0.053 -0.303 c 0 -0.168 -0.033 -0.305 -0.1 -0.41 c -0.062 -0.105 -0.147 -0.192 -0.252 -0.258 c -0.101 -0.066 -0.219 -0.119 -0.352 -0.158 c -0.129 -0.039 -0.258 -0.08 -0.391 -0.123 z" style="fill:#ececec;fill-opacity:1"/>
</svg>
